X:1
T:James Gibb editions
T:Eile mich, Gott, zu erretten - Schütz
T:#
%%score 1 2
L:1/8
Q:1/4=100
M:4/4
K:C
V:1 treble nm="Soprano"
V:2 bass nm="Continuo"
V:1
"^In Stylo Oratorio""^Eile mich, Gott, zu erretten SWV 282""^Heinrich Schütz\n(1585-1672)" d>d d2 d2 d^c | %1
w: Ei- le mich, Gott, zu er-|
 d2 d2 z2 d2- | d2 d^c d2 d2 | z2 c2 c2 cB | c>c c>d _B3 A | A4 A4 | z2 AA A3 G | G4 F4 | E8 | D8 | %10
w: ret- ten, Herr|* mir zu hel- fen.|Es müs- sen sich|schä- men und zu Schan- den|wer- den,|die nach mei- ner|See- len|ste-|hen,|
 z2 D2 F2 FA | F3 D D2 D2 | z2 FF F3 E | G2 G2 z2 GG | G3 F F4 | E8 | z2 E3/2 D/ E2 E2 | %17
w: sie müs- sen zu-|rü- cke- keh- ren|und ge- höh- net|wer- den, die mir|ü- bels wün-|sehen,|dass sie müs- sen|
 E>E E>E ^F3 F | ^G4 G4 | BB Bc/d/ e2 B>A | ^c3 B d3 c | d8 | z2 d4 cB | cA G3 ^FFE | ^F4 z BBA | %25
w: wie- de- rum zu Schan- den|wer- den,|die da ü- ber mich schre- ien: Da,|da, da, da, da,|da;|freu- en und|fröh- lich müs- sen sein in|dir, die nach dir|
 B2 B2 z2 c2- | c2 de B4 | A8 | z2 cA G4 | F4 z2 CC | F2 z F A2 AA | c2 z c f4 | e8 | !fermata!d8 | %34
w: fra- gen und|* dein Heil he-|ben,|im- mer sa-|gen: Hoch ge-|lobt, ge- lobt, hoch ge-|lobt, ge- lobt|sei|Gott.|
 z8 | z8 | z8 | z8 | z4 z2 d2 | ^G4 G2 z G | ^G2 G^F A4 | z A A2 E A2 G/^F/ | ^Fd d2 A d2 c/B/ | %43
w: ||||Ich|a- ber bin|e- lend und arm;|Gott, ei- le, ei- le zu|mir, Gott, ei- le, ei- le zu|
 B4 z2 BB | B3 A B4 | B2 z d d3 d | d3 c e2 e2 | z G G2 E G2 F/E/ | Ec c2 G c2 _B/A/ | A4 z2 AA | %50
w: mir, denn du|bist mein Hel-|fer, mein Hel- fer|und Er- ret- ter,|Gott, ei- le, ei- le zu|mir, Gott, ei- le, ei- le zu|mir, denn du|
 A3 G A4 | A2 z c c3 c | c3 _B d2 d d | e2 z e f2 z f | g2 f2 e4 | d4 z2 z B | c2 z c d2 z d | %57
w: bist mien Hel-|fer, mein Hel- fer|und Er- ret- ter, memGott,|* mein Gott, mein|Gott, ver- zeuch|nicht, mein|Gott, mein Gott, mein|
 e3 B B4 | A8 | z2 EE E3 D | E2 E2 z2 E2 | E3 E E3 D | A2 A2 z2 F2 | G4 z2 G2 | A4 z2 A2 | _B6 E2 | %66
w: Gott, ver- zeuch|nicht,|denn du bist mein|Hel- fer, mein|Hel- fer und Er-|ret- ter, mein|Gott, mein|Gott, mein|Gott, ver-|
 E8 | D16 |] %68
w: zeuch|nicht.|
V:2
 D,8 | D,8 | D,8 | A,,8 | A,,4 G,,4 | D,8 | D,8 | G,,8 | A,,8 | D,8 | D,8 | D,8 | D,8 | C,4 C,4 | %14
w: |||||||6~~~~5|4||||||
 G,,8 | A,,8 | A,,8 | A,,4- A,,4 | E,8 | E,8 | A,,4 G,,2 A,,2 | D,8 | D,8 | A,,8 | D,8 | %25
w: |||* 6||||||||
 G,,4 A,,4 | D,4 E,4 | A,,8 | F,,4 C,4 | F,,8 | F,,8 | F,,4 D,,4 | A,,8 | !fermata!D,,8 | %34
w: |||||||||
"^Symphonia" D,2 A,,2 _B,,2 F,,2 | G,,4 D,2 _B,,2 | A,,2 G,,2 A,,4 | !fermata!D,,8 | D,8 | E,8- | %40
w: ||||||
 E,4 ^C,4- | C,4 ^C,4 | D,8 | G,,4 G,,4- | G,,4 G,,4 | G,,8 | G,,4 C,4 | C,8 | C,8 | F,,4 F,,4 | %50
w: * 6||||||||||
 F,,8 | F,,8 | F,,4 _B,,4 | A,,4 D,4 | G,,4 A,,4 | D,4 G,,4 | C,4 B,,4 | A,,2 D,2 E,4 | A,,8 | %59
w: ||||||* 6|||
 A,,8 | A,,4 A,,4- | A,,4 G,,4 | F,,8 | C,4 B,,4 | A,,4 ^F,,4 | G,,2 A,,2 _B,,2 G,,2 | A,,8 | %67
w: ||* 6||||||
 D,16 |] %68
w: |

